X:91
T:L'Ao De Rotso
R:Scottish double
M:2/4
L:1/8
N:Anime
N:La Bourre 4th edition 1929, page 88
Z:Steve Mansfield www.lesession.co.uk June 2012
K:G
|: G A/ B/ c A| | d/ c/ d/ e/ d/ c/ B/ A/ | 
G A/ B/ c A | d/ c/ d/ e/ d2 :|
|: G/ A/ B/ G/ d c/ B/ | A B/ G/ F D | 
G/ A/ B/ G/ d c/ B/ | A B/ A/ G2 :|

